src/images/svg-to-icon-sprite/facebook-logo.svg

<svg width="10" height="18" viewBox="0 0 10 18" fill="none" xmlns="http://www.w3.org/2000/svg">
<path d="M6.22531 17.3774V9.656H8.8174L9.20492 6.64732H6.22531V4.72586C6.22531 3.85501 6.46751 3.26081 7.71619 3.26081L9.30933 3.25973V0.568605C9.03376 0.532006 8.08756 0.450195 6.98743 0.450195C4.69029 0.450195 3.11759 1.85281 3.11759 4.42768V6.64732H0.519043V9.656H3.11759V17.3774H6.22531Z" fill="black"/>
</svg>

<svg width="10" height="18" fill="none" xmlns="http://www.w3.org/2000/svg"><path d="M6.225 17.377V9.656h2.592l.388-3.009h-2.98V4.726c0-.871.243-1.465 1.491-1.465L9.31 3.26V.569A21.344 21.344 0 0 0 6.987.45c-2.297 0-3.87 1.403-3.87 3.978v2.22H.52v3.008h2.599v7.721h3.107Z" fill="#000"/></svg>
